src/16/actions/debug-step-out.svg

<svg xmlns="http://www.w3.org/2000/svg" width="16" height="16" viewBox="0 0 16 16">
 <defs>
  <style id="current-color-scheme" type="text/css">
   .ColorScheme-Text { color:#565656; } .ColorScheme-Highlight { color:#5294e2; }
  </style>
 </defs>
 <path style="fill:currentColor" class="ColorScheme-Text" d="m3.0078 1c-2.2487 0-2 2-2 2v12h13.992v-10h-1.998v8h-9.9942v-8h7.9922v-4h-7.9922zm8.9922 0v4l3-2-3-2zm-5.5664 5c-1.0655 0-1.5137 0.3522-1.5137 1.2539 0 0-0.0244 0.5874-0.0312 0.7461-0.0462 0.3689-0.1754 0.6777-0.5782 0.6777h-0.3046v0.6446h0.3046c0.5886 0 0.6094 0.6442 0.6094 1.2007-0.005 0.174 0.0136 0.369 0.0176 0.477 0.0833 0.712 0.5388 1 1.4961 1v-0.592c-0.4495 0-0.6064-0.118-0.6699-0.408-0.0337-0.116-0.0372-0.514-0.0508-0.705 0-0.4155-0.124-1.0347-0.7227-1.2911 0.4731-0.2026 0.6441-0.6283 0.6973-1.0039 0.0239-0.1041 0.0186-0.2223 0.0254-0.3027 0-0.8663 0.0104-1.1055 0.7207-1.1055v-0.5918zm3.1426 0v0.5918c0.7098 0 0.7188 0.2392 0.7188 1.1055 0.007 0.0804 0.002 0.1986 0.025 0.3027 0.054 0.3756 0.225 0.8013 0.698 1.0039-0.599 0.2564-0.723 0.8756-0.723 1.2911-0.014 0.191-0.017 0.589-0.051 0.705-0.063 0.29-0.218 0.408-0.6678 0.408v0.592c0.9568 0 1.4108-0.288 1.4938-1 0.004-0.108 0.023-0.303 0.018-0.477 0-0.5565 0.021-1.2007 0.609-1.2007h0.305v-0.6446h-0.305c-0.402 0-0.532-0.3088-0.578-0.6777-0.007-0.1587-0.031-0.7461-0.031-0.7461 0-0.9017-0.446-1.2539-1.5118-1.2539z"/>
</svg>

<svg xmlns="http://www.w3.org/2000/svg" width="16" height="16"><defs><style id="current-color-scheme" type="text/css"></style></defs><path d="M3.008 1c-2.249 0-2 2-2 2v12H15V5h-1.998v8H3.008V5H11V1H3.008zM12 1v4l3-2-3-2zM6.434 6C5.368 6 4.92 6.352 4.92 7.254L4.889 8c-.047.369-.176.678-.579.678h-.304v.644h.305c.588 0 .609.645.609 1.201-.005.174.014.369.018.477.083.712.538 1 1.496 1v-.592c-.45 0-.607-.118-.67-.408-.034-.116-.038-.514-.051-.705 0-.415-.124-1.035-.723-1.291.473-.203.644-.628.698-1.004.023-.104.018-.222.025-.303 0-.866.01-1.105.72-1.105V6zm3.142 0v.592c.71 0 .719.239.719 1.105.007.08.002.199.025.303.054.376.225.801.698 1.004-.599.256-.723.876-.723 1.291-.014.191-.017.589-.051.705-.063.29-.218.408-.668.408V12c.957 0 1.411-.288 1.494-1 .004-.108.023-.303.018-.477 0-.556.021-1.2.609-1.2h.305v-.645h-.305c-.402 0-.532-.31-.578-.678l-.031-.746c0-.902-.446-1.254-1.512-1.254z" fill="currentColor" color="#565656"/></svg>
